X:11074
T:Mon pere a tu le loup
R:Ronde
A:Normandie
O:France
M:6/8
L:1/8
Q:110
K:G
z3 G2A|B2c B2A|G3 B2c|d2 d B2c|d3 GGA|B2 c B2A|!
G3 BBc|d2 d B2c|d3-d2z|d2 d d2 d|dcB c2c|A2B c3|!
cBA B2G|B2c d2d|dcB c3|ABc d3|cBA G3||
